dist/img/svg/tree_icon.svg

<svg xmlns="http://www.w3.org/2000/svg" viewBox="0 0 383.98 511.7"><style>.st0{fill:#000}</style><path class="st0" d="M213.32 511.7h-42.67c-11.75 0-21.33-9.58-21.33-21.33v-53.33c0-5.89 4.78-10.67 10.67-10.67s10.66 4.78 10.66 10.67v53.33h42.67v-53.33c0-5.89 4.78-10.67 10.67-10.67s10.66 4.78 10.66 10.67v53.33c0 11.75-9.57 21.33-21.33 21.33M94.94 170.37h194.11L191.99 29.18zm214.38 21.33H74.65a10.668 10.668 0 01-8.79-16.7L183.2 4.33c3.99-5.77 13.61-5.77 17.58 0L318.11 175c2.24 3.26 2.5 7.51.64 11.01a10.644 10.644 0 01-9.43 5.69"/><path class="st0" d="M351.99 319.7h-320c-4.03 0-7.73-2.28-9.54-5.89a10.646 10.646 0 011-11.17l96-128c3.55-4.72 10.24-5.66 14.94-2.14 4.71 3.54 5.67 10.22 2.13 14.94l-83.2 110.93h277.33l-83.2-110.93c-3.54-4.72-2.58-11.4 2.14-14.94 4.69-3.56 11.39-2.6 14.93 2.14l96 128a10.59 10.59 0 011 11.15c-1.81 3.63-5.5 5.91-9.53 5.91"/><path class="st0" d="M373.32 447.7H10.65c-4.01 0-7.7-2.26-9.51-5.86-1.8-3.61-1.44-7.9.94-11.14l94.5-128c3.5-4.74 10.18-5.76 14.92-2.24 4.73 3.5 5.76 10.18 2.24 14.91l-81.94 111h320.4l-81.96-111c-3.5-4.73-2.5-11.41 2.24-14.91 4.73-3.52 11.41-2.48 14.91 2.24l94.51 128c2.39 3.24 2.75 7.55.94 11.14-1.82 3.58-5.51 5.86-9.52 5.86"/></svg>

<svg xmlns="http://www.w3.org/2000/svg" viewBox="0 0 383.98 511.7">
	<style type="text/css">
		.st0{fill:#000000;}
	</style>
	<path class="st0" d="M213.32,511.7L170.65,511.7C158.9,511.7 149.32,502.12 149.32,490.37L149.32,437.04C149.32,431.15 154.1,426.37 159.99,426.37C165.88,426.37 170.65,431.15 170.65,437.04L170.65,490.37L213.32,490.37L213.32,437.04C213.32,431.15 218.1,426.37 223.99,426.37C229.88,426.37 234.65,431.15 234.65,437.04L234.65,490.37C234.65,502.12 225.08,511.7 213.32,511.7"/>
	<path class="st0" d="M94.94,170.37L289.05,170.37L191.99,29.18ZM309.32,191.7L74.65,191.7C70.69,191.7 67.06,189.5 65.22,186.01C63.37,182.49 63.62,178.26 65.86,175L183.2,4.33C187.19,-1.44 196.81,-1.44 200.78,4.33L318.11,175C320.35,178.26 320.61,182.51 318.75,186.01C316.92,189.5 313.29,191.7 309.32,191.7"/>
	<path class="st0" d="M351.99,319.7L31.99,319.7C27.96,319.7 24.26,317.42 22.45,313.81C20.64,310.19 21.02,305.88 23.45,302.64L119.45,174.64C123,169.92 129.69,168.98 134.39,172.5C139.1,176.04 140.06,182.72 136.52,187.44L53.32,298.37L330.65,298.37L247.45,187.44C243.91,182.72 244.87,176.04 249.59,172.5C254.28,168.94 260.98,169.9 264.52,174.64L360.52,302.64C362.95,305.86 363.34,310.19 361.52,313.79C359.71,317.42 356.02,319.7 351.99,319.7"/>
	<path class="st0" d="M373.32,447.7L10.65,447.7C6.64,447.7 2.95,445.44 1.14,441.84C-0.66,438.23 -0.3,433.94 2.08,430.7L96.58,302.7C100.08,297.96 106.76,296.94 111.5,300.46C116.23,303.96 117.26,310.64 113.74,315.37L31.8,426.37L352.2,426.37L270.24,315.37C266.74,310.64 267.74,303.96 272.48,300.46C277.21,296.94 283.89,297.98 287.39,302.7L381.9,430.7C384.29,433.94 384.65,438.25 382.84,441.84C381.02,445.42 377.33,447.7 373.32,447.7"/>
</svg>
